X: 50
T: Praeludia organi op. 5 – Allegro
C: Franciszek Walczyński
%%abc-version 2.0
%%abcx-abcm2ps-target-version 5.9.1 (29 Sep 2008)
%%abc-creator hum2abc beta
%%abcx-conversion-date 2021/10/04 07:38:42
%%abc-edited-by Andrzej Borzym
%%abc-edited-by Krzysztof Stępień
%%abcx-initial-encoding-date 2021-07-26
%%humdrum-veritas 2280638963
%%humdrum-veritas-data 2783743681
%%linebreak <none>
%%barnumbers 0
L: 1/4
M: 3/4
N: Derived from pl-kozmzk--mzk-m-159--039_walczynski-franciszek--praeludia-organi-op-5-allegro.krn
Q: "39. Allegro."
%%staves {1 2}
V: 1 clef=treble
V: 2 clef=bass
K: Gb
[V:1] B/c/d/B/c/d/ & G/A/B/G/A/B/ | 
[V:2] D,2G,- & G,,3- | 
[V:1] e3 & c3 | 
[V:2] G,/E,/G,/A,/!accent!G, & G,,3 | 
[V:1] A/B/c/A/B/c/ & F/G/A/F/G/A/ | 
[V:2] D>CB,/A,/ & G,,3- | 
[V:1] d3 & B3 | 
[V:2] G,/D,/G,/A,/!accent!G, & G,,3 | 
[V:1] edc & cBA | 
[V:2] F,G,A, & D,E,F, | 
[V:1] Bdc & G_FE | 
[V:2] B,2C & G,=G,A, | 
[V:1] B2A & DG=F/E/ | 
[V:2] DE2 & B,CE, | 
[V:1] !fermata!B3 & F3 | 
[V:2] =D3 & !fermata!B,,3 | 
[V:1] edc & G=GA | 
[V:2] E3 & C,B,,A,, | 
[V:1] B2A & _G3 | 
[V:2] _DE=C & D,2E, | 
[V:1] A3 & F3 | 
[V:2] _C/B,/C/E/D/C/- & D,3 | 
[V:1] G3- & D3- | 
[V:2] CB,A, & G,,3- | 
[V:1] !fermata!G3 & D3 |]  
[V:2] B,3 & !fermata!G,,3 |]  


